X:1
T:The Lamb Is the Light Thereof
T:The Lamb Is the Light Thereof
T:George Coles Stebbins
T:Sophia Taylor Griswold, 1877
T:Public Domain Courtesy of the Cyber Hymnal™
C:George Coles Stebbins
Z:Public Domain
Z:Courtesy of the Cyber Hymnal™
%%score ( 1 2 ) ( 3 4 )
L:1/8
Q:1/4=110
M:4/4
K:Bb
V:1 treble 
V:2 treble 
V:3 bass 
V:4 bass 
V:1
 [DF]2 | [DF]2 [EG]>[EA] [DB]2 [FB]2 | [EB]2 (AG) [EA]2 [EG]>[EG] | [CF]2 [Fe]2 [Fd]2 [Ec]2 | %4
w: 1.~If|nev- er the gaze of|sun and * moon, On the|bless- èd home a-|
w: 2.~And|thus saith the page of|Ho- ly * Writ Of the|land of song and|
w: 3.~Then|fol- low Him, till the|eye grows * dim, And the|soul, as ark- freed|
 [DB]6 [DB]2 | [FA]2 ([FA]>[GB]) [Fc]2 [EA]2 | [DB]2 [Ec]2 !fermata![Fd]2 !fermata![FB][Fd] | %7
w: bove, From|whence are~its * rays of|won- drous noon? Oh! “The|
w: love, “The|glo- ry~of * God did|light- en it, And the|
w: dove, Shall|speed a- * way to|realms of day, Where “The|
 [Fc]2 [Fc]>[FB] [FA]2 [=EG]2 | F6 ||"^Refrain" F>F | [Ae]2 [Ad]2 [Ac]2 B>[Ac] | %11
w: Lamb is the light there-|of.”|||
w: Lamb is the light there-|of.”|They shall|walk in white, There shall|
w: Lamb is the light there-|of.”|||
 [Bd]2 [Ac]2 [GB]2 [GB]>[^FA] | G2 [FB]2 [=Ed]2 [Ec]2 | [Fc]6 F>F | [FB]2 [Fc]2 [Fd]2 [DB]>[FB] | %15
w: ||||
w: be no night In the|fade- less home a-|bove; And the|shout shall ring As the|
w: ||||
 [Gc]2 [Gd]2 !fermata![Ge]2 !fermata![Gd][Gc] | [FB]2 [FB]>[FB] [EB]2 [EA]2 | [DB]6 |] %18
w: |||
w: ran- somed sing, Oh! “The|Lamb is the light there-|of.”|
w: |||
V:2
 x2 | x8 | x2 E2 x4 | x8 | x8 | x8 | x8 | x8 | F6 || F>F | x6 B3/2 x/ | x8 | G2 x6 | x6 F>F | x8 | %15
 x8 | x8 | x6 |] %18
V:3
 [B,,B,]2 | [B,,B,]2 [B,,B,]>[B,,B,] [B,,F,]2 [B,,D]2 | [F,C]2 [F,C]2 [F,C]2 [F,B,]>[F,B,] | %3
 [F,A,]2 [F,C]2 [F,B,]2 [F,A,]2 | [B,,B,]6 [B,,B,]2 | [F,C]2 ([F,C]>[F,D]) [F,E]2 [F,C]2 | %6
 [B,,B,]2 [B,,B,]2 [B,,B,]2 [B,,D][B,,B,] | [C,A,]2 [C,A,]>[C,D] [C,C]2 [C,B,]2 | [F,A,]6 || %9
 [F,A,]>[F,A,] | [F,C]2 [F,D]2 [F,E]2 [F,D]>[F,E] | [B,F]2 [F,E]2 [G,D]2 [D,D]>[D,C] | %12
 [E,B,]2 [D,B,]2 [C,B,]2 [C,B,]2 | [F,A,]6 [F,A,]>[E,A,] | [D,B,]2 [F,A,]2 B,2 [B,,B,]>[D,B,] | %15
 [E,B,]2 [D,B,]2 [C,C]2 [D,B,][E,C] | [F,D]2 [F,D]>[F,D] [F,C]2 [F,C]2 | [B,,B,]6 |] %18
V:4
 x2 | x8 | x8 | x8 | x8 | x8 | x8 | x8 | x6 || x2 | x8 | x8 | x8 | x8 | x4 B,2 x2 | x8 | x8 | x6 |] %18

